X:1
T:E paar Zeuerli. Ruggusserli. Bb
T:Naturjodel rund um den Saentis (www.roothuus-gonten.ch)
%%partsbox
%P:
Q:1/4=60
R:Naturjodel
M:4/4
L:1/4
K:Bb %  (%%MIDI gchordo) 
[P:A] Fdeg | "Bb"d>(FF)f | "F7"c>(FF)f | "Bb"d>(FF2) | 
w: Tro u du-u du jo_  u du jo_ u du jo
"Bb"Fd"Cm"e"F7"g | "Bb"d>(FF) f | "F7"c>(FF) f | d/>c/ | "Bb"B3z |] 
w: tro u du-u du jo_u du jo_ u-li du 
L:1/8 
[P:B] c(F F>)f =e(F F>)F | "Bb"B(F F>)F d(F F>)F | "F7"f3=e c2 g>f | "Bb"d3(F F3)f | 
w:tru jo_u-u jo_li  du jo_ li u o_ li u u u u u u jo_ u 
"F7"c(F F>)f =e(F F>)F | "Bb"B(F F>)F d(F F>)F | "F7"f3=e c2 F>d | "Bb"B6z2 |] 
w:tru jo_u u jo_li  du jo_ li u jo_ li u u u o-u u
[P:C] "Bb"FDDD FDDD | F>B c2d2f2 | "F7"c(F F>)F c(F F>)F | "Bb"B>A Bc d4 | 
w: tro-li-di-li tro-li-di-li  tro u u du u u jo_li du jo_li u lu lu-u-u
FDDD FDDD | F>B c2d2g2 | "F7"f3=e c(F F>)d | "Bb"B6z2 |] 
w: tro-li-di-li tro-li-di-li  tro u u du u  u u u o_u u 
[P:D] "F7"c(F F>)F e(F F>)F | "Bb"B3cd4 | "F7"f3=ec2f2 | "Bb"d3(F F4) | 
w: tru jo_ li u jo_ li du du du u lu du u u o 
"F7"c(F F>)F e(F F>)F | "Bb"B3cd4 | "F7"f3=e c(F F>)d | "Bb"B6z2 |] 
w: tru jo_ li u jo_ li du du du u lu du jo_ u u 
W:
%W:Parts: ABCD
W:Jodler Josef Inauen (Felders Seff 1888-1956)
W:dazu Hackbrett und Kontrabass
W:Schellackplatte Odeon A 208080, (1929) "E paar Zeuerli"
W: 
W:Der ganze Jodel oder einzelne Teile sind auch zu finden auf:
W: LP044 Geschwister Dörig (1975)
W:LP048 "Volkstümliches App. Ausserrhoden" (1983)
W: CD "10 Jahre Landjugendchörli Appenzell" (1991)
W:CD "Jodel Theorie und Praxis" Mülirad-Verlag 1116 (2010)
W: 
W:https://www.roothuus-gonten.ch/mediendateien/jodel/pdf/E_paar_Zeuerli.pdf
W: *AUDIO*:  www.roothuus-gonten.ch/cms/index.php/de/naturjodel-rund-um-den-saentis
% © 2015 ROOTHUUS GONTEN. #330.10 (SCH037A)
% Feb. 10 2019

